X: 9
T: Unreal the Buffalo is Standing
N: Derived from pawnee09.krn
O: Oklahoma, U.S.A.
N: from Pawnee Music by Frances Densmore, 1926
Z: transcribed to **kern format by David Huron, August 2000
C: Skidi and Chaui Bands, 1919
L: 1/8
M: 2/4
Q: 1/4=88
K: B clef=bass
%%linebreak <none>
D/ D/ [I:setbarnb 1]| 
D D D D | 
D D B, G, | 
(D,/ B,/) B, B, B,/ G,/ | 
D, D, D, D, | 
B, B, B, B,/ G,/ | 
D, D, ^^C, C, | 
D,/ D,/ D,E,2 | 
(E,/ D,/) D,D,2 | 
D D D D | 
B, G,/> G,/G,2 | 
B, B, B, B,/ G,/ | 
D,> D,D,2 | 
B, B, B, (3B,/ G,/ G,/ | 
D, D, ^^C, C, | 
D,/ D,/ D,E,2 | 
E,/ D,/ D, !fermata!D, D/ D/ | 
D D D D | 
D D B, G,[M:3/4] | 
D G, D D/> D/ D z[M:2/4] | 
D D D D | 
B, G,/> G,/G,2 | 
B, B, B, B,/ G,/ | 
D,> D,D,2 | 
B, B, B, (3B,/ G,/ G,/ | 
D, D, ^^C, C, | 
D,/ D,/ D,E,2 | 
E,/ D,/ D, D, |]  



